front/assets/images/stat-test-maturite.svg

<svg width="96" height="96" viewBox="0 0 96 96" fill="none" xmlns="http://www.w3.org/2000/svg">
<path fill-rule="evenodd" clip-rule="evenodd" d="M87.6 21.5996C86.94 21.5996 86.4 21.0596 86.4 20.3996C86.4 19.7396 86.94 19.1996 87.6 19.1996C88.26 19.1996 88.8 19.7396 88.8 20.3996C88.8 21.0596 88.26 21.5996 87.6 21.5996ZM8.40001 21.5996C7.74001 21.5996 7.20001 21.0596 7.20001 20.3996C7.20001 19.7396 7.74001 19.1996 8.40001 19.1996C9.06001 19.1996 9.60001 19.7396 9.60001 20.3996C9.60001 21.0596 9.06001 21.5996 8.40001 21.5996ZM13.2 81.5996C12.54 81.5996 12 81.0596 12 80.3996C12 79.7396 12.54 79.1996 13.2 79.1996C13.86 79.1996 14.4 79.7396 14.4 80.3996C14.4 81.0596 13.86 81.5996 13.2 81.5996ZM78 86.3996C77.34 86.3996 76.8 85.8596 76.8 85.1996C76.8 84.5396 77.34 83.9996 78 83.9996C78.66 83.9996 79.2 84.5396 79.2 85.1996C79.2 85.8596 78.66 86.3996 78 86.3996ZM22.8 7.19956C22.14 7.19956 21.6 6.65956 21.6 5.99956C21.6 5.33956 22.14 4.79956 22.8 4.79956C23.46 4.79956 24 5.33956 24 5.99956C24 6.65956 23.46 7.19956 22.8 7.19956ZM66 93.5996C65.34 93.5996 64.8 93.0596 64.8 92.3996C64.8 91.7396 65.34 91.1996 66 91.1996C66.66 91.1996 67.2 91.7396 67.2 92.3996C67.2 93.0596 66.66 93.5996 66 93.5996Z" fill="#FFF7DB"/>
<path d="M85.188 58.7515C85.164 58.1395 84.684 57.6475 84.072 57.6115C83.856 57.5995 78.912 57.3235 75.912 60.7075C75.156 61.5475 74.616 62.5315 74.22 63.5275C74.016 63.1795 73.776 62.8435 73.512 62.5195C71.16 59.7835 67.296 59.9995 67.128 60.0115C66.516 60.0475 66.036 60.5395 66 61.1515C66 61.3315 65.82 65.6275 68.088 68.2795C69.636 70.0795 71.832 70.5955 73.2 70.7395V75.5995C73.2 76.2595 73.74 76.7995 74.4 76.7995C75.06 76.7995 75.6 76.2595 75.6 75.5995V70.7635C77.304 70.6315 80.376 70.0795 82.488 67.6915C85.428 64.3915 85.2 58.9795 85.188 58.7515ZM69.912 66.7195C68.88 65.5075 68.544 63.6835 68.448 62.4715C69.408 62.6155 70.764 63.0115 71.688 64.0795C72.72 65.2915 73.056 67.1155 73.152 68.3155C72.192 68.1835 70.836 67.7875 69.912 66.7195ZM80.7 66.0955C79.224 67.7515 76.98 68.2195 75.636 68.3515C75.732 66.8035 76.128 64.0675 77.7 62.3035C79.176 60.6475 81.42 60.1795 82.764 60.0475C82.668 61.5955 82.272 64.3315 80.7 66.0955ZM63.6 44.3995C63.456 44.3995 63.312 44.4235 63.168 44.4475L58.992 36.0955C59.616 35.4475 60 34.5715 60 33.5995C60 31.6195 58.38 29.9995 56.4 29.9995C54.84 29.9995 53.52 31.0075 53.016 32.3995H42.984C42.48 31.0075 41.16 29.9995 39.6 29.9995C37.62 29.9995 36 31.6195 36 33.5995C36 34.6555 36.468 35.6035 37.188 36.2515L33.792 44.4235C33.792 44.4235 33.66 44.3995 33.6 44.3995C31.62 44.3995 30 46.0195 30 47.9995C30 49.9795 31.5 51.4555 33.372 51.5755L36.312 61.8715C35.4 62.5315 34.8 63.5875 34.8 64.7995C34.8 66.7795 36.42 68.3995 38.4 68.3995C40.38 68.3995 42 66.7795 42 64.7995C42 64.7635 41.988 64.7395 41.988 64.7035L51.276 61.1275C51.936 61.8955 52.908 62.3995 54 62.3995C55.98 62.3995 57.6 60.7795 57.6 58.7995C57.6 58.1755 57.42 57.5875 57.144 57.0715L62.244 51.3355C62.664 51.5035 63.12 51.5995 63.6 51.5995C65.58 51.5995 67.2 49.9795 67.2 47.9995C67.2 46.0195 65.58 44.3995 63.6 44.3995ZM56.4 32.3995C56.544 32.3995 56.688 32.4355 56.82 32.4835C56.856 32.4955 56.892 32.5195 56.916 32.5315C57.024 32.5795 57.12 32.6395 57.192 32.7115C57.216 32.7355 57.24 32.7475 57.264 32.7715C57.468 32.9875 57.6 33.2755 57.6 33.5995C57.6 34.2595 57.06 34.7995 56.4 34.7995C55.74 34.7995 55.2 34.2595 55.2 33.5995C55.2 32.9395 55.74 32.3995 56.4 32.3995ZM38.496 33.1315C38.496 33.1315 38.508 33.1315 38.508 33.1075C38.568 32.9875 38.64 32.8795 38.724 32.7955C38.748 32.7595 38.784 32.7355 38.82 32.7115C38.892 32.6395 38.976 32.5795 39.072 32.5435C39.108 32.5195 39.144 32.4955 39.18 32.4835C39.312 32.4355 39.444 32.3995 39.6 32.3995C40.26 32.3995 40.8 32.9395 40.8 33.5995C40.8 34.2595 40.26 34.7995 39.6 34.7995C38.94 34.7995 38.4 34.2595 38.4 33.5995C38.4 33.4315 38.436 33.2755 38.496 33.1315ZM33.6 49.1995C32.976 49.1995 32.472 48.7195 32.424 48.1075C32.412 48.0595 32.4 48.0115 32.412 47.9635C32.412 47.8195 32.436 47.6635 32.496 47.5315C32.676 47.0995 33.108 46.7995 33.6 46.7995C34.26 46.7995 34.8 47.3395 34.8 47.9995C34.8 48.6595 34.26 49.1995 33.6 49.1995ZM38.4 65.9995H38.388C38.22 65.9995 38.052 65.9515 37.896 65.8795C37.836 65.8555 37.8 65.8075 37.74 65.7835C37.668 65.7235 37.584 65.6755 37.524 65.6035C37.476 65.5555 37.44 65.4955 37.404 65.4355C37.356 65.3515 37.308 65.2795 37.284 65.1955C37.236 65.0635 37.2 64.9435 37.2 64.7995C37.2 64.1395 37.74 63.5995 38.4 63.5995C39.06 63.5995 39.6 64.1395 39.6 64.7995C39.6 65.4595 39.06 65.9995 38.4 65.9995ZM54.876 59.6155C54.756 59.7475 54.612 59.8435 54.444 59.9155C54.312 59.9635 54.156 59.9995 54 59.9995C53.34 59.9995 52.8 59.4595 52.8 58.7995C52.8 58.1395 53.34 57.5995 54 57.5995C54.66 57.5995 55.2 58.1395 55.2 58.7995C55.2 59.1115 55.068 59.3995 54.876 59.6155ZM60.456 49.7275L55.356 55.4635C54.936 55.2955 54.48 55.1995 54 55.1995C52.02 55.1995 50.4 56.8195 50.4 58.7995C50.4 58.8355 50.412 58.8595 50.412 58.8955L41.124 62.4715C40.5 61.7515 39.624 61.2835 38.628 61.2235L35.688 50.9275C36.6 50.2675 37.2 49.2115 37.2 47.9995C37.2 46.9435 36.732 45.9955 36.012 45.3475L39.408 37.1755C39.408 37.1755 39.54 37.1995 39.6 37.1995C41.16 37.1995 42.48 36.1915 42.984 34.7995H53.016C53.52 36.1915 54.84 37.1995 56.4 37.1995C56.544 37.1995 56.688 37.1755 56.832 37.1515L61.008 45.5035C60.384 46.1515 60 47.0275 60 47.9995C60 48.6235 60.18 49.2115 60.456 49.7275ZM64.788 48.0595C64.776 48.1795 64.752 48.2995 64.716 48.4075C64.704 48.4315 64.704 48.4555 64.692 48.4795C64.512 48.8995 64.092 49.1995 63.6 49.1995C62.94 49.1995 62.4 48.6595 62.4 47.9995C62.4 47.3395 62.94 46.7995 63.6 46.7995C64.08 46.7995 64.5 47.0875 64.692 47.5075C64.704 47.5435 64.704 47.5795 64.716 47.6155C64.752 47.7115 64.776 47.8195 64.788 47.9275V48.0595Z" fill="#FED980"/>
<path d="M88.716 47.5795C88.716 47.5795 88.692 47.5195 88.68 47.4835C88.68 47.4595 88.668 47.4355 88.656 47.4115L69.456 12.6115C69.456 12.6115 69.408 12.5515 69.396 12.5275C69.372 12.4915 69.348 12.4675 69.324 12.4315C69.24 12.3235 69.132 12.2275 69.012 12.1555H68.988C68.868 12.0955 68.748 12.0475 68.616 12.0235C68.58 12.0235 68.532 12.0115 68.496 12.0115C68.46 12.0115 68.436 11.9995 68.4 11.9995H27.6C27.6 11.9995 27.54 11.9995 27.504 12.0115C27.468 12.0115 27.42 12.0115 27.384 12.0235C27.252 12.0475 27.12 12.0835 27.012 12.1555H27C26.88 12.2275 26.784 12.3235 26.688 12.4315C26.664 12.4675 26.64 12.4915 26.616 12.5275C26.592 12.5515 26.568 12.5755 26.556 12.6115L7.34401 47.4115C7.34401 47.4115 7.33201 47.4595 7.32001 47.4835C7.32001 47.5195 7.29601 47.5435 7.28401 47.5795C7.23601 47.7115 7.20001 47.8555 7.20001 47.9875C7.20001 48.1315 7.23601 48.2635 7.28401 48.4075C7.28401 48.4435 7.30801 48.4675 7.32001 48.4915C7.32001 48.5155 7.33201 48.5395 7.35601 48.5635L26.556 83.3635C26.556 83.3635 26.604 83.4235 26.616 83.4475C26.64 83.4835 26.652 83.5075 26.676 83.5315C26.772 83.6395 26.868 83.7355 26.988 83.8075C26.988 83.8075 27.012 83.8075 27.024 83.8075C27.108 83.8555 27.192 83.8915 27.276 83.9155C27.384 83.9395 27.48 83.9635 27.588 83.9635H68.388C68.496 83.9635 68.604 83.9635 68.7 83.9155C68.784 83.8915 68.868 83.8555 68.94 83.8195C68.952 83.8195 68.976 83.8195 68.988 83.7955C69.108 83.7235 69.216 83.6275 69.3 83.5195C69.324 83.4955 69.348 83.4595 69.36 83.4355C69.384 83.3995 69.408 83.3755 69.42 83.3515L71.628 79.3555C71.952 78.7795 71.736 78.0475 71.16 77.7235C70.584 77.3995 69.852 77.6155 69.528 78.1915L68.34 80.3395L64.812 74.3275L66.144 71.9155C66.468 71.3395 66.252 70.6075 65.676 70.2835C65.088 69.9595 64.368 70.1755 64.044 70.7515L63.396 71.9155L59.196 64.7515C58.836 64.1395 58.02 63.9715 57.456 64.4035C57.144 64.6315 56.964 64.9915 56.964 65.3635C56.964 65.5675 57.024 65.7715 57.132 65.9635L61.344 73.1635H34.584L35.616 71.3875C35.94 70.8355 35.772 70.1275 35.244 69.7795C35.04 69.6475 34.812 69.5875 34.584 69.5875C34.176 69.5875 33.78 69.7915 33.552 70.1755L32.532 71.9155L19.992 49.1635H26.4C27.06 49.1755 27.6 48.6355 27.6 47.9755C27.6 47.3155 27.06 46.7755 26.4 46.7755H19.992L32.532 24.0115L34.752 27.8035C35.1 28.3915 35.868 28.5715 36.444 28.1995C36.804 27.9715 36.996 27.5875 36.996 27.1915C36.996 26.9875 36.936 26.7835 36.828 26.5915L34.584 22.7635H61.344L59.148 26.5195C58.8 27.0955 59.004 27.8515 59.592 28.1755C59.784 28.2835 59.976 28.3315 60.18 28.3315C60.588 28.3315 60.996 28.1155 61.224 27.7315L63.396 24.0115L75.936 46.7635H70.8C70.128 46.7755 69.6 47.3155 69.6 47.9755C69.6 48.6355 70.14 49.1755 70.8 49.1755H75.936L74.352 52.0315C74.028 52.6075 74.244 53.3395 74.82 53.6635C75.396 53.9875 76.128 53.7715 76.452 53.1955L78.672 49.1755H85.536L83.136 53.5195C82.812 54.0955 83.028 54.8275 83.604 55.1515C84.18 55.4755 84.912 55.2595 85.236 54.6835L88.62 48.5635C88.62 48.5635 88.644 48.5155 88.656 48.4915C88.668 48.4675 88.68 48.4315 88.692 48.4075C88.74 48.2755 88.776 48.1315 88.776 47.9995L88.8 47.9755C88.8 47.8315 88.764 47.6995 88.716 47.5675V47.5795ZM33.216 75.5875H62.796L66.312 81.5875H29.7L33.216 75.5875ZM31.152 74.3515L27.624 80.3635L10.428 49.1875H17.292L31.152 74.3515ZM17.292 46.7875H10.428L27.624 15.6115L31.152 21.6235L17.292 46.7875ZM62.784 20.3875H33.204L29.688 14.3875H66.3L62.784 20.3875ZM78.708 46.7875L64.848 21.6235L68.376 15.6115L85.572 46.7875H78.708ZM56.52 46.7875H50.088L53.088 41.6755L53.652 40.7035C53.964 40.1515 53.808 39.4555 53.28 39.1075C52.704 38.7235 51.924 38.9035 51.576 39.5035L50.412 41.4835L47.988 45.6115L45.372 41.1355L44.328 39.3595C43.992 38.7835 43.248 38.5915 42.672 38.9395C42.108 39.2755 41.916 40.0075 42.252 40.5835L45.9 46.7875H40.668C40.008 46.7875 39.468 47.3275 39.468 47.9875C39.468 48.6475 40.008 49.1875 40.668 49.1875H45.9L40.728 57.9955C40.38 58.5835 40.596 59.3395 41.196 59.6635C41.76 59.9755 42.468 59.7715 42.804 59.2195L47.988 50.3755L49.644 53.1835C49.968 53.7355 50.664 53.9275 51.228 53.6395C51.828 53.3275 52.044 52.5715 51.696 51.9835L50.076 49.2115H56.508C57.168 49.2115 57.708 48.6715 57.708 48.0115C57.708 47.3515 57.168 46.8115 56.508 46.8115L56.52 46.7875Z" fill="#0D0C21"/>
</svg>

<svg xmlns="http://www.w3.org/2000/svg" width="96" height="96" fill="none"><path fill="#FFF7DB" fill-rule="evenodd" d="M87.6 21.6c-.66 0-1.2-.54-1.2-1.2s.54-1.2 1.2-1.2 1.2.54 1.2 1.2-.54 1.2-1.2 1.2m-79.2 0c-.66 0-1.2-.54-1.2-1.2s.54-1.2 1.2-1.2 1.2.54 1.2 1.2-.54 1.2-1.2 1.2m4.8 60c-.66 0-1.2-.54-1.2-1.2s.54-1.2 1.2-1.2 1.2.54 1.2 1.2-.54 1.2-1.2 1.2M78 86.4c-.66 0-1.2-.54-1.2-1.2S77.34 84 78 84s1.2.54 1.2 1.2-.54 1.2-1.2 1.2M22.8 7.2c-.66 0-1.2-.54-1.2-1.2s.54-1.2 1.2-1.2S24 5.34 24 6s-.54 1.2-1.2 1.2M66 93.6c-.66 0-1.2-.54-1.2-1.2s.54-1.2 1.2-1.2 1.2.54 1.2 1.2-.54 1.2-1.2 1.2" clip-rule="evenodd"/><path fill="#FED980" d="M85.188 58.752a1.185 1.185 0 0 0-1.116-1.14c-.216-.013-5.16-.288-8.16 3.096-.756.84-1.296 1.824-1.692 2.82a8 8 0 0 0-.708-1.008c-2.352-2.737-6.216-2.52-6.384-2.509A1.205 1.205 0 0 0 66 61.152c0 .18-.18 4.476 2.088 7.128 1.548 1.8 3.744 2.317 5.112 2.46v4.86c0 .66.54 1.2 1.2 1.2s1.2-.54 1.2-1.2v-4.836c1.704-.132 4.776-.684 6.888-3.072 2.94-3.3 2.712-8.711 2.7-8.94m-15.276 7.967c-1.032-1.212-1.368-3.035-1.464-4.247.96.143 2.316.54 3.24 1.607 1.032 1.213 1.368 3.037 1.464 4.237-.96-.133-2.316-.529-3.24-1.597m10.788-.623c-1.476 1.655-3.72 2.123-5.064 2.255.096-1.547.492-4.284 2.064-6.047 1.476-1.657 3.72-2.125 5.064-2.257-.096 1.549-.492 4.285-2.064 6.049M63.6 44.4c-.144 0-.288.023-.432.047l-4.176-8.352A3.58 3.58 0 0 0 60 33.6c0-1.98-1.62-3.6-3.6-3.6-1.56 0-2.88 1.008-3.384 2.4H42.984C42.48 31.008 41.16 30 39.6 30a3.61 3.61 0 0 0-3.6 3.6 3.57 3.57 0 0 0 1.188 2.651l-3.396 8.172s-.132-.023-.192-.023A3.61 3.61 0 0 0 30 48c0 1.98 1.5 3.456 3.372 3.575l2.94 10.296A3.6 3.6 0 0 0 34.8 64.8c0 1.98 1.62 3.6 3.6 3.6s3.6-1.62 3.6-3.6c0-.036-.012-.06-.012-.096l9.288-3.576A3.6 3.6 0 0 0 54 62.4c1.98 0 3.6-1.62 3.6-3.6a3.7 3.7 0 0 0-.456-1.728l5.1-5.736c.42.168.876.264 1.356.264 1.98 0 3.6-1.62 3.6-3.6s-1.62-3.6-3.6-3.6m-7.2-12c.144 0 .288.035.42.084.036.011.072.035.096.047a.9.9 0 0 1 .276.18c.024.025.048.037.072.06.204.216.336.505.336.828 0 .66-.54 1.2-1.2 1.2s-1.2-.54-1.2-1.2.54-1.2 1.2-1.2m-17.904.732s.012 0 .012-.024a1.2 1.2 0 0 1 .216-.312.3.3 0 0 1 .096-.084.7.7 0 0 1 .252-.169.5.5 0 0 1 .108-.06 1.2 1.2 0 0 1 .42-.083c.66 0 1.2.54 1.2 1.2s-.54 1.2-1.2 1.2-1.2-.54-1.2-1.2a1.2 1.2 0 0 1 .096-.468M33.6 49.2a1.18 1.18 0 0 1-1.176-1.093.3.3 0 0 1-.012-.143c0-.145.024-.3.084-.432A1.198 1.198 0 0 1 34.8 48c0 .66-.54 1.2-1.2 1.2M38.4 66h-.012c-.168 0-.336-.049-.492-.12-.06-.024-.096-.072-.156-.096-.072-.06-.156-.109-.216-.18a1 1 0 0 1-.12-.168c-.048-.085-.096-.157-.12-.24a1.1 1.1 0 0 1-.084-.397c0-.66.54-1.2 1.2-1.2s1.2.54 1.2 1.2-.54 1.2-1.2 1.2m16.476-6.385c-.12.133-.264.228-.432.3A1.204 1.204 0 0 1 52.8 58.8c0-.66.54-1.2 1.2-1.2s1.2.54 1.2 1.2c0 .313-.132.6-.324.816m5.58-9.888-5.1 5.737A3.6 3.6 0 0 0 54 55.2a3.61 3.61 0 0 0-3.6 3.6c0 .036.012.06.012.096l-9.288 3.575a3.57 3.57 0 0 0-2.496-1.247l-2.94-10.296A3.6 3.6 0 0 0 37.2 48a3.57 3.57 0 0 0-1.188-2.653l3.396-8.172s.132.025.192.025c1.56 0 2.88-1.009 3.384-2.4h10.032c.504 1.392 1.824 2.4 3.384 2.4.144 0 .288-.025.432-.049l4.176 8.353A3.58 3.58 0 0 0 60 48c0 .624.18 1.212.456 1.727m4.332-1.667c-.012.12-.036.24-.072.347-.012.025-.012.049-.024.073-.18.42-.6.72-1.092.72-.66 0-1.2-.54-1.2-1.2s.54-1.2 1.2-1.2c.48 0 .9.288 1.092.708.012.035.012.072.024.107.036.096.06.204.072.313z"/><path fill="#0D0C21" d="M88.716 47.58s-.024-.06-.036-.096c0-.025-.012-.049-.024-.073l-19.2-34.8s-.048-.06-.06-.084c-.024-.035-.048-.06-.072-.095a1.2 1.2 0 0 0-.312-.277h-.024c-.12-.06-.24-.107-.372-.131-.036 0-.084-.012-.12-.012s-.06-.013-.096-.013H27.6s-.06 0-.096.012c-.036 0-.084 0-.12.013a1 1 0 0 0-.372.132H27a1.3 1.3 0 0 0-.312.275c-.024.037-.048.06-.072.097a.2.2 0 0 0-.06.083l-19.212 34.8s-.012.048-.024.072c0 .037-.024.06-.036.097a1.2 1.2 0 0 0-.084.407c0 .145.036.276.084.42 0 .037.024.06.036.085q0 .035.036.072l19.2 34.8s.048.06.06.084c.024.036.036.06.06.084.096.108.192.204.312.276h.036q.126.07.252.107c.108.024.204.048.312.048h40.8c.108 0 .216 0 .312-.047a1.4 1.4 0 0 0 .24-.096c.012 0 .036 0 .048-.024.12-.073.228-.169.312-.277a.4.4 0 0 0 .06-.084c.024-.035.048-.06.06-.084l2.208-3.995a1.203 1.203 0 0 0-.468-1.632 1.203 1.203 0 0 0-1.632.468L68.34 80.34l-3.528-6.013 1.332-2.412a1.2 1.2 0 1 0-2.1-1.164l-.648 1.164-4.2-7.164a1.186 1.186 0 0 0-1.74-.348 1.2 1.2 0 0 0-.492.96c0 .204.06.409.168.6l4.212 7.2h-26.76l1.032-1.775a1.2 1.2 0 0 0-.372-1.609 1.2 1.2 0 0 0-.66-.191c-.408 0-.804.204-1.032.588l-1.02 1.74-12.54-22.752H26.4c.66.011 1.2-.529 1.2-1.189s-.54-1.2-1.2-1.2h-6.408l12.54-22.763 2.22 3.791a1.205 1.205 0 0 0 1.692.396c.36-.228.552-.612.552-1.008 0-.203-.06-.407-.168-.6l-2.244-3.828h26.76l-2.196 3.756a1.193 1.193 0 0 0 .444 1.657c.192.108.384.155.588.155a1.22 1.22 0 0 0 1.044-.6l2.172-3.72 12.54 22.753H70.8c-.672.011-1.2.551-1.2 1.211s.54 1.2 1.2 1.2h5.136l-1.584 2.857a1.203 1.203 0 0 0 .468 1.632 1.203 1.203 0 0 0 1.632-.468l2.22-4.02h6.864l-2.4 4.343a1.203 1.203 0 0 0 .468 1.633 1.203 1.203 0 0 0 1.632-.468l3.384-6.12.036-.072c.012-.024.024-.06.036-.084.048-.133.084-.276.084-.409l.024-.024a1.2 1.2 0 0 0-.084-.407zm-55.5 28.008h29.58l3.516 6H29.7zm-2.064-1.236-3.528 6.011-17.196-31.175h6.864zm-13.86-27.565h-6.864l17.196-31.175 3.528 6.012zm45.492-26.4h-29.58l-3.516-6H66.3zm15.924 26.4-13.86-25.163 3.528-6.012 17.196 31.176zm-22.188 0h-6.432l3-5.111.564-.973a1.198 1.198 0 1 0-2.076-1.2l-1.164 1.98-2.424 4.129-2.616-4.477-1.044-1.776a1.2 1.2 0 0 0-1.656-.42 1.205 1.205 0 0 0-.42 1.645l3.648 6.203h-5.232c-.66 0-1.2.54-1.2 1.2s.54 1.2 1.2 1.2H45.9l-5.172 8.809a1.206 1.206 0 0 0 2.076 1.224l5.184-8.844 1.656 2.808a1.2 1.2 0 0 0 1.584.456c.6-.312.816-1.069.468-1.657l-1.62-2.771h6.432c.66 0 1.2-.54 1.2-1.2s-.54-1.2-1.2-1.2z"/></svg>
